X:1
T:Princess Royal
O:Stanton Harcourt
M:4/4
L:1/8
Q:1/4=120
P:A2B4
K:Gm
P:A
GA|B2AB G2cB |B2AB G2d2|e2c2  cdef|d2c2 B3d |
ccB2 A2G2 |FGFE D2d2|cBAG  F2A2|G4   G2 |]
P:B
d=e|f2d2 d=efd|g2d2 c4  |gg=ed cBAG|A2F2 F4  |
G2GA B2B2 |c2c2 g2g2|f2d2  e2fe|d2G2 c2dc|
BAGF GABc |d2d2 G2d2|cBAG  F2A2|G4   G2 |]
</abc>
